public/logo.svg

<svg width="142" height="142" viewBox="0 0 142 142" fill="none" xmlns="http://www.w3.org/2000/svg">
<path d="M26.7545 3.2942C15.8291 9.01949 9.95519 22.3785 12.7746 35.0219C14.4193 42.6556 16.4165 46.2339 21.8204 51.3628C28.3992 57.5652 29.5739 58.2809 36.2702 60.6664L42.4965 62.9327L36.3876 64.2447C21.5855 67.4652 8.19302 76.411 3.14149 86.4303C0.204547 92.2748 -0.970229 104.799 0.909412 111.717C3.6114 121.855 14.1844 128.893 23.935 127.104C32.8633 125.315 36.8576 116.488 31.2186 111.121C27.5768 107.662 25.9321 107.781 25.4622 111.717C25.2273 114.341 24.4049 115.176 21.8204 115.415C15.1242 116.249 10.4251 107.304 12.8921 98.4772C14.5368 92.3941 22.5253 84.4025 28.9866 82.4941C35.8003 80.3471 44.846 79.3929 48.4878 80.3471L51.4248 81.0628L46.8431 87.3845C41.7916 94.064 38.6197 102.652 38.6197 109.809C38.6197 120.782 47.548 135.334 56.7113 139.628C73.0406 147.142 91.0147 135.811 88.5477 119.589C87.4904 112.075 81.2641 105.515 76.4475 106.707C74.6853 107.065 72.2183 108.496 71.0435 109.689C68.8115 111.836 68.8115 111.956 71.9834 112.79C73.628 113.148 75.8601 114.699 76.7999 116.011C82.6738 124.48 71.161 131.398 61.2929 125.195C55.1841 121.498 53.5394 117.919 54.1268 109.809C54.7141 101.698 58.356 95.1375 65.1697 89.8893L69.3988 86.5495L71.8659 90.0086C79.5019 101.101 95.3614 110.763 107.344 111.717C124.966 113.268 142 101.936 142 88.8158C142 75.6953 126.375 64.8411 119.797 73.4291C116.625 77.6038 116.742 78.9158 120.032 78.0809C121.794 77.6038 123.791 78.2001 125.906 79.9893C128.725 82.1363 129.195 83.329 128.843 87.5037C128.49 91.917 128.02 92.6327 123.204 95.1375C116.155 98.7158 108.871 98.5965 101.235 94.7796C94.1866 91.2013 85.8457 84.0447 83.0263 79.1544L81.1466 75.6953L90.4273 76.0532C107.579 76.7688 117.917 71.4014 123.908 58.6387C126.61 53.152 127.198 50.1701 127.198 42.7749C127.315 34.7833 126.963 33.1134 123.791 27.8653C117.565 17.6074 105.699 13.4327 96.5362 18.2038C91.4846 20.9472 86.7855 28.1038 86.7855 33.1134C86.7855 38.0038 91.2497 42.8942 95.8313 42.8942C98.2983 42.8942 98.6508 42.5363 97.5935 41.4628C95.4789 39.3158 95.9488 32.7556 98.2983 30.6086C104.172 25.1219 112.631 31.5628 112.631 41.4628C112.631 53.7484 103.82 63.1712 92.1895 63.1712C87.6079 63.1712 85.9632 62.5749 83.1437 59.7122L79.7369 56.1339L82.0864 52.1978C83.3787 50.0508 84.436 47.0689 84.436 45.6375C84.436 42.7749 79.1495 35.7375 76.9174 35.7375C76.0951 35.7375 74.8028 32.9942 73.9805 29.4159C70.9261 15.5797 62.1152 5.44119 50.015 1.7436C40.8518 -0.99977 34.0381 -0.522662 26.7545 3.2942ZM76.6825 42.0592C79.267 43.9676 78.7971 48.6195 75.9776 50.5279C71.2785 53.3905 66.5794 45.2797 71.0435 42.0592C72.2183 41.2243 73.5106 40.5086 73.863 40.5086C74.2154 40.5086 75.5077 41.2243 76.6825 42.0592ZM59.0608 46.711C60.7055 49.5737 58.7084 52.9134 55.0666 53.3905C50.25 54.1062 48.0179 47.9038 52.0122 44.9219C54.0093 43.6098 57.6511 44.4448 59.0608 46.711Z" fill="white"/>
</svg>

<svg width="142" height="142" fill="none" xmlns="http://www.w3.org/2000/svg"><path d="M26.755 3.294c-10.926 5.725-16.8 19.084-13.98 31.728 1.644 7.634 3.641 11.212 9.045 16.34 6.58 6.203 7.754 6.919 14.45 9.304l6.226 2.267-6.108 1.312C21.586 67.465 8.193 76.41 3.14 86.43.205 92.275-.97 104.8.91 111.717c2.702 10.138 13.275 17.176 23.026 15.387 8.928-1.789 12.923-10.616 7.284-15.983-3.642-3.459-5.287-3.34-5.757.596-.235 2.624-1.057 3.459-3.642 3.698-6.696.834-11.395-8.111-8.928-16.938 1.645-6.083 9.633-14.075 16.095-15.983 6.813-2.147 15.859-3.101 19.5-2.147l2.938.716-4.582 6.322c-5.051 6.679-8.223 15.267-8.223 22.424 0 10.973 8.928 25.525 18.091 29.819 16.33 7.514 34.304-3.817 31.837-20.039-1.058-7.514-7.284-14.074-12.1-12.882-1.763.358-4.23 1.789-5.404 2.982-2.233 2.147-2.233 2.267.94 3.101 1.644.358 3.876 1.909 4.816 3.221 5.874 8.469-5.639 15.387-15.507 9.184-6.109-3.697-7.754-7.276-7.166-15.386.587-8.111 4.229-14.671 11.043-19.92l4.229-3.34 2.467 3.46c7.636 11.092 23.495 20.754 35.478 21.708C124.966 113.268 142 101.936 142 88.816s-15.625-23.975-22.203-15.387c-3.172 4.175-3.055 5.487.235 4.652 1.762-.477 3.759.12 5.874 1.908 2.819 2.147 3.289 3.34 2.937 7.515-.353 4.413-.823 5.129-5.639 7.633-7.049 3.579-14.333 3.46-21.969-.357-7.048-3.579-15.39-10.735-18.209-15.626l-1.88-3.459 9.281.358c17.152.716 27.49-4.652 33.481-17.414 2.702-5.487 3.29-8.469 3.29-15.864.117-7.992-.235-9.662-3.407-14.91-6.226-10.258-18.092-14.432-27.255-9.661-5.051 2.743-9.75 9.9-9.75 14.91 0 4.89 4.464 9.78 9.045 9.78 2.467 0 2.82-.358 1.763-1.431-2.115-2.147-1.645-8.707.704-10.854 5.874-5.487 14.333.954 14.333 10.854 0 12.285-8.811 21.708-20.442 21.708-4.581 0-6.226-.596-9.045-3.459l-3.407-3.578 2.35-3.936c1.292-2.147 2.349-5.13 2.349-6.56 0-2.863-5.287-9.9-7.519-9.9-.822 0-2.114-2.744-2.936-6.322C70.925 15.58 62.115 5.44 50.015 1.744 40.852-1 34.038-.523 26.755 3.294ZM76.683 42.06c2.584 1.909 2.114 6.56-.705 8.469-4.7 2.863-9.399-5.248-4.934-8.469 1.174-.835 2.467-1.55 2.819-1.55.352 0 1.645.715 2.82 1.55ZM59.06 46.711c1.645 2.863-.353 6.202-3.994 6.68-4.817.715-7.05-5.487-3.055-8.47 1.997-1.311 5.64-.476 7.049 1.79Z" fill="#fff"/></svg>
